icons/fingerprint-2-line.svg

<svg xmlns="http://www.w3.org/2000/svg" width="24" height="24" fill="none"><g clip-path="url(#a)"><g><path fill="#121212" d="M12 1.00001C14.387 1.00001 16.6761 1.94822 18.364 3.63605C20.0518 5.32388 21 7.61306 21 10V14C21.0005 15.4483 20.6514 16.8754 19.9824 18.16C19.3134 19.4445 18.3443 20.5487 17.1573 21.3786C15.9704 22.2085 14.6006 22.7398 13.1645 22.9272C11.7283 23.1146 10.2682 22.9526 8.908 22.455C9.036 22.278 9.159 22.098 9.277 21.913L9.447 21.633C10.4167 20.0151 10.9507 18.1737 10.997 16.288L11 16V9.00001H13V16C13.0021 17.7166 12.6633 19.4165 12.003 21.001C12.7753 21.0006 13.5423 20.8729 14.273 20.623C14.715 19.262 14.966 17.815 14.997 16.313L15 16V12.999H17V16C17 17.088 16.898 18.153 16.702 19.185C17.3965 18.557 17.9576 17.7956 18.3517 16.9462C18.7458 16.0969 18.9649 15.1769 18.996 14.241L19 14V10C19 8.70087 18.6385 7.42737 17.9559 6.32201C17.2733 5.21666 16.2965 4.32307 15.135 3.74125C13.9734 3.15943 12.6728 2.91233 11.3788 3.02762C10.0848 3.1429 8.84842 3.61601 7.808 4.39401L6.383 2.96801C7.97648 1.69129 9.95815 0.996982 12 1.00001ZM7 10C7 8.67393 7.52679 7.40216 8.46447 6.46448C9.40215 5.52679 10.6739 5.00001 12 5.00001C13.3261 5.00001 14.5979 5.52679 15.5355 6.46448C16.4732 7.40216 17 8.67393 17 10V11H15V10C15.0008 9.2191 14.697 8.46868 14.1532 7.90819C13.6095 7.3477 12.8686 7.02133 12.088 6.99841C11.3075 6.97549 10.5487 7.25785 9.97303 7.78547C9.39734 8.3131 9.05006 9.04441 9.005 9.82401L9 10V16C9 17.567 8.6 19.04 7.896 20.323L7.872 20.363C7.642 20.777 7.381 21.171 7.09 21.542C6.65026 21.2552 6.23636 20.9307 5.853 20.572L5.544 20.272C3.90952 18.5938 2.99645 16.3427 3 14V10C3 7.87501 3.736 5.92201 4.968 4.38301L6.394 5.80801C5.53634 6.95124 5.05106 8.3306 5.004 9.75901L5 10V14C5 15.675 5.588 17.212 6.57 18.417C6.82821 17.7193 6.97206 16.9845 6.996 16.241L7 16V10Z"/></g></g><defs><clipPath id="a"><rect width="24" height="24" fill="white"/></clipPath></defs></svg>

<svg width="24" height="24" fill="none" xmlns="http://www.w3.org/2000/svg"><g clip-path="url(#a)"><path d="M12 1a9 9 0 0 1 9 9v4a9 9 0 0 1-12.092 8.455c.128-.177.251-.357.369-.542l.17-.28a10.918 10.918 0 0 0 1.55-5.345L11 16V9h2v7a12.96 12.96 0 0 1-.997 5.001c.772 0 1.54-.128 2.27-.378a14.93 14.93 0 0 0 .724-4.31L15 16v-3.001h2V16a17.06 17.06 0 0 1-.298 3.185 6.978 6.978 0 0 0 2.294-4.944L19 14v-4A7 7 0 0 0 7.808 4.394L6.383 2.968A8.962 8.962 0 0 1 12 1Zm-5 9a5 5 0 0 1 10 0v1h-2v-1a3 3 0 0 0-5.995-.176L9 10v6c0 1.567-.4 3.04-1.104 4.323l-.024.04c-.23.414-.491.808-.782 1.179a9.032 9.032 0 0 1-1.237-.97l-.309-.3A8.97 8.97 0 0 1 3 14v-4c0-2.125.736-4.078 1.968-5.617l1.426 1.425a6.966 6.966 0 0 0-1.39 3.951L5 10v4c0 1.675.588 3.212 1.57 4.417a6.91 6.91 0 0 0 .426-2.176L7 16v-6Z" /></g><defs><clipPath id="a"><path fill="#fff" d="M0 0h24v24H0z"/></clipPath></defs></svg>
